X:1
L:1/8
M:4/4
K:Amin
 BG |""Am"" A a2 g a2 ef |""G"" gedB GABG |""Am"" A a2 g a2 ef |""G"" gedB""Am"" A2 :| AB |""Am"" cAeA cAeA | 
""^G/Em"" BcdB G2 AB |""Am"" cAeA cAeA |""G"" BAGB""Am"" A2 AB |""Am"" cAeA cAeA |""G"" BcdB G3 B | 
""Am"" ABcd efga |""G"" gedB""Am"" A2 ||
